X:1
T:Title
%%score { 1 | 2 }
L:1/8
M:4/4
K:F
V:1 treble nm="Grand Piano"
V:2 bass 
V:1
 z4 z2[Q:1/4=108] C>C | F2 [EG]2 [FA]2 [_Ec]2 | [DB]2 [B,D]2 z2 [DG]>[DF] |[M:3/4] FE EE E2 | %4
[M:1/4] A>G |[M:4/4] GFFF F2 C>C | F2 [EG]2 [FA]2 [_Ec]2 |[M:3/4] [DB]2[K:bass] [F,B,D]2 z2 | %8
[M:1/4][K:treble] [B,DG]>[G,DF] |[M:4/4] [A,CF]2 [G,CE]2 [CEA]3 [B,EG] |[M:3/4] [A,F]6 | %11
[M:1/4] [A,F]>[A,F] |[M:4/4] [B,FB]2 c2 d2 c2 | [FB]2 [Fc]2 [Fd]2 [DFB]2 | [FAc]AFA c2 A2 | %15
 GE[DF][=B,D] C2 CC | FF F2 [EG][EG] [EG]2 | [CFA][CEG][CEA][CGB] [FAc][CFA][A,CF][B,CG] | %18
 [CFA]3 [DFB] [CFA]2 [B,EG]2 |[M:3/4] [A,F]6 |] %20
V:2
 z4 z2 C,>C, | [F,A,C]2 [C,C]2 [F,C]2 [A,,F,]2 | [B,,F,]2 [B,,F,]2 z2 [B,,B,]>[B,,G,] | %3
[M:3/4] [C,A,C][C,G,C] [C,G,C][C,G,C] [C,G,C]2 |[M:1/4] [C,C]>[C,B,C] | %5
[M:4/4] [F,B,C][F,A,C][F,A,C][F,A,C] [F,A,C]2 C,>C, | [F,A,C]2 [C,C]2 [F,C]2 [A,,F,]2 | %7
[M:3/4] [B,,F,]2 B,,2 z2 |[M:1/4] B,,>B,, |[M:4/4] C,2 C,2 C,3 C, |[M:3/4] F,6 |[M:1/4] F,>F, | %12
[M:4/4] D,2[K:treble] [F,A,F]2 [B,F]2[K:bass] [F,A,F]2 | [D,B,]2 [F,A,]2 B,2 B,,2 | %14
 F,[F,CF][F,A,C][F,C] [F,A,F]2 [F,CF]2 | [G,CE][G,C][G,,G,][G,,F,] [C,E,]2 C,[C,B,] | %16
 [F,A,C][F,A,C] [F,A,C]2 [C,C][C,C] [C,C]2 | F,F,F,F, F,F,F,F, | F,3 B,, C,2 C,2 |[M:3/4] F,6 |] %20

